X:15
T:Diolch am yr Efengyl
M:4/2
L:1/2
Q:60
C:Trad.
R:Hymn
K:D
D2 F F | E E D D | G F E2 | F F/2F/2 E E | D D/2D/2 E E | F D/2F/2 G F |
E2 D2 | F>F E E | D>D E E | F>D G F | E2 D2 ||
